lib/brands/icons/google-fonts.svg

<svg xmlns="http://www.w3.org/2000/svg" fill="none" aria-hidden="true" viewBox="0 0 48 48"><g id="google-fonts-Icon"><g id="Group"><path id="path58" fill="#FBBC04" d="M6 37.8L23.4 10.2H34.2V14.04L19.2 37.8"/><path id="path64" fill="#1A73E8" d="M34.1999 37.8H23.3999V10.2H34.1999V37.8Z"/><path id="path70" fill="#34A853" d="M42.0002 30C42.0002 34.308 38.5082 37.8 34.2002 37.8V22.2C38.5082 22.2 42.0002 25.692 42.0002 30Z"/><path id="path76" fill="#0D652D" d="M34.1999 37.8C29.8919 37.8 26.3999 34.308 26.3999 30C26.3999 25.692 29.8919 22.2 34.1999 22.2V37.8Z"/><path id="path82" fill="#1A73E8" d="M40.2002 16.2C40.2002 19.5132 37.5146 22.2 34.2002 22.2V10.2C37.5146 10.2 40.2002 12.8868 40.2002 16.2Z"/><path id="path88" fill="#174EA6" d="M34.2002 22.2C30.8858 22.2 28.2002 19.5132 28.2002 16.2C28.2002 12.8868 30.8858 10.2 34.2002 10.2V22.2Z"/><path id="path94" fill="#EA4335" d="M6.6001 15.6C6.6001 12.618 9.0181 10.2 12.0001 10.2C14.9821 10.2 17.4001 12.618 17.4001 15.6C17.4001 18.582 14.9821 21 12.0001 21C9.0181 21 6.6001 18.582 6.6001 15.6Z"/></g></g></svg>

<svg xmlns="http://www.w3.org/2000/svg" fill="none" aria-hidden="true" viewBox="0 0 48 48"><path fill="#FBBC04" d="m6 37.8 17.4-27.6h10.8v3.84l-15 23.76"/><path fill="#1A73E8" d="M34.2 37.8H23.4V10.2h10.8v27.6Z"/><path fill="#34A853" d="M42 30a7.8 7.8 0 0 1-7.8 7.8V22.2A7.8 7.8 0 0 1 42 30Z"/><path fill="#0D652D" d="M34.2 37.8a7.8 7.8 0 1 1 0-15.6v15.6Z"/><path fill="#1A73E8" d="M40.2 16.2a6 6 0 0 1-6 6v-12a6 6 0 0 1 6 6Z"/><path fill="#174EA6" d="M34.2 22.2a6 6 0 1 1 0-12v12Z"/><path fill="#EA4335" d="M6.6 15.6a5.4 5.4 0 1 1 10.801 0 5.4 5.4 0 0 1-10.8 0Z"/></svg>
